X:28
T:Cancan
%Eb
Q:1/4=150
L:1/8
M:4/4
K:Cmaj
C2C2 DFED | G2G2 GAEF | D2D2 DFED | CcBA GFED |
C4 DFED | G2G2 GAEF | D2D2 DFED | CGDE C4 |

